X:666
T: Songlang
N: C2192
O: China, Hunan Youxian
S: I, 529]
R: Xiaodiao]
M: 2/4
L: 1/16
K: Ab
c2A2B3c | e2f2e4 | c2B2A2F2 | e2c2B4
c2A2B3c | A2BAF4 | A3cB2E2 | G2F2E4
c2A2B3c | e2f2e4 | c3BA2F2 | e2c2B4
c2A2B3c | A2BAF4 | A3cB2E2 | G2F2E4

